X:1
T:Second Waltz
T:Second Waltz
T:Tonalidade Original
T:dmitri Shostakovich 
T:Ronald
C:dmitri Shostakovich
Z:Ronald
L:1/8
M:3/4
K:Eb
V:1 treble nm="Violino" snm="Vln."
V:1
 z2 z4 | z6 | z6 | z6 |:!p! (G6 | E4 D2 | (C6) | C2) (C2 D2 | E2 C2 E2 | G4 A2 | G6 | F6) | (F6 | %13
 D4 C2 | (B,6) | B,2) (G,2 =B,2 | D2 =B,2 D2 | F2 G2 A2 | ^F6 | G6) |!p! (e6 | d4 c2 | B4 A2 | %23
 F6) | (d6 | c4 B2) | B6 | z2 .E2 .F2 | .G2 (GF GA) | .F2 (FE FG) | .E2 z2 .G2 | z2 .E2 .F2 | %32
 .G2 (GF GA) | .F2 (FE FG) | .E2 z2 .G2 | z2!mf! .c2 .d2 | .e2 (ed ef) | .d2 (dc de) | .c2 z2 z2 | %39
 z6 | z6 | z6 |!mf! (G6 | E4 D2 | (C6) | C2) (C2 D2 | E2 C2 E2 | G4 A2 | G6 | F6) | (F6 | D4 C2 | %52
 (B,6) | B,2) (G,2 =B,2 | D2 =B,2 D2 | F2 G2 A2 | ^F6 | G6) | (e6 | d4 c2 | B4 A2 | F6) | (d6 | %63
 c4 B2) | B6 |!f! z2 .E2 .F2 | .G2 (GF GA) | .F2 (FE FG) | .E2 z2 .G2 |!mf! z2 .E2 .F2 | %70
 .G2 (GF GA) | .F2 (FE FG) | .E2 z2 .G2 |!f! z2 .c2 .d2 | .e2 (ed ef) | .d2 (dc de) | .c2 z2 z2 | %77
 z4 !>!B2 | e6 | e6 | (e2 d2 c2) | (B2 G2 B2) | d6 | d6 | (c2 B2 G2) | (E2 F2 G2) | c6 | B6 | %88
 (B2 A2 G2) | (F2 E2 F2) | (G4 B2) | (G4 B2) | (G4 B2) | (e4 f2) | g6 | g6 | (g2 f2 e2) | %97
 (d2 B2 d2) | f6 | f6 | (f2 e2 d2) | (c2 G2 B2) | e6 | e6 | e6 | (f2 e2 f2) | (g4 e2) | %107
 (B2 c2 d2) | (e2 f2 e2) | (_d2 c2 =d2) | (c4 (E2 | E2) D2 E2) | (c4 (E2 | E2) _d2 c2) | (c4 B2) | %115
 (=A4 B2) | (f4 e2) | (_d2 c2 =B2) | (c4 (E2 | E2) D2 E2) | (c4 (E2 | E2) F2 G2) | (A4 B2) | c6 | %124
 (d2 c2 d2) | (e4 _d2) | (c=B) .c.A .E.D | (EC) .D.F .E.A | (c=B) .c.g .e.c | (AG) .A._d .c.A | %130
 (ED) .E.B .G.E | (_DC) .D.F .G._d | (EG) .B._d .f.e | (_dB) .G.F .D.=B | (c=B) .c.A .E.D | %135
 (EC) .D.F .E.A | (c=B) .c.f .e.c | (AG) .A._d .c.A | (F=E) .F._d .B.G | (F=E) .F.C .D._E | %140
 (FG) .A.B .c.d | (ef) .e.d .e.f | !fermata!g6 | z6 | z6 | z6 | z6 |!mf! (G6 | E4 D2 | (C6) | %150
 C2) (C2 D2 | E2 C2 E2 | G4 A2 | G6 | F6) | (F6 | D4 C2 | (B,6) | B,2) (G,2 =B,2 | D2 =B,2 D2 | %160
 F2 G2 A2 | ^F6 | G6) |!mp! (e6 | d4 c2 | B4 A2 | F6) | (d6 | c4 B2 | B6) | z2!mf! .E2 .F2 | %171
 .G2 (GF GA) | .F2 (FE FG) | .E2!f! z2 .G2 | z2 .E2 .F2 | .G2 (GF GA) | .F2 (FE FG) | %177
 .E2!ff! z2 .G2 | z2 .c2 .d2 | .e2 (ed ef) | .d2 (dc de) | .c2 z2 G2 |!fff! c2 z4 :| %183

